.local/share/icons/Gruvbox-Plus-Dark/mimetypes/scalable/application-vnd.openxmlformats-officedocument.presentationml.slideshow.svg

<svg width="256" height="256" viewBox="0 0 256 256" fill="none" xmlns="http://www.w3.org/2000/svg">
<g opacity="0.4" filter="url(#filter0_f)">
<path d="M55.0839 15.5636H155.608L216.009 75.7129L216.011 224.609C216.011 233.52 208.749 240.737 199.838 240.737H55.0838C46.1734 240.737 39 233.564 39 224.654V31.6474C39 22.737 46.1734 15.5636 55.0838 15.5636H55.0839Z" fill="#282828"/>
</g>
<path d="M55.0839 15H155.608L216.009 75.1493L216.011 224.045C216.011 232.956 208.749 240.174 199.838 240.174H55.0838C46.1734 240.174 39 233 39 224.09V31.0838C39 22.1734 46.1734 15 55.0838 15H55.0839Z" fill="#ebdbb2"/>
<path opacity="0.2" d="M199.838 240.174C208.749 240.174 216.011 232.956 216.011 224.046L216.01 186.5H39V224.09C39 233 46.1734 240.174 55.0838 240.174H199.838Z" fill="url(#paint0_linear)"/>
<path fill-rule="evenodd" clip-rule="evenodd" d="M155.608 20.3191H55.0839C49.1112 20.3191 44.3191 25.1111 44.3191 31.0838V224.09C44.3191 230.063 49.1111 234.855 55.0838 234.855H199.838C205.83 234.855 210.692 229.999 210.692 224.046V75.1493L155.608 20.3191ZM155.608 15H55.0839C46.1735 15 39 22.1734 39 31.0838V224.09C39 233 46.1734 240.174 55.0838 240.174H199.838C208.749 240.174 216.011 232.956 216.011 224.045L216.009 75.1493L155.608 15Z" fill="url(#paint1_linear)"/>
<path d="M80.5289 226H85.3289V215.4H92.1689C98.8889 215.4 101.569 210.68 101.569 206.68C101.569 202.4 99.1289 198 92.1689 198H80.5289V226ZM92.4089 210.84H85.3289V202.56H92.4089C95.6889 202.56 96.6089 204.92 96.6089 206.68C96.6089 208.64 95.4889 210.84 92.4089 210.84ZM105.959 226H110.759V215.4H117.599C124.319 215.4 126.999 210.68 126.999 206.68C126.999 202.4 124.559 198 117.599 198H105.959V226ZM117.839 210.84H110.759V202.56H117.839C121.119 202.56 122.039 204.92 122.039 206.68C122.039 208.64 120.919 210.84 117.839 210.84ZM139.567 226.48C145.087 226.48 149.407 223.44 149.407 218.04C149.407 212.12 144.367 210.36 140.287 208.92C137.367 207.96 134.927 207.12 134.927 205.08C134.927 203.16 136.407 202.08 138.927 202.08C141.567 202.08 143.167 203.32 143.887 204.96L148.207 203.52C147.207 200.08 144.127 197.52 139.247 197.52C133.367 197.52 130.047 200.96 130.047 205.04C130.047 210.36 134.527 211.92 138.527 213.28C141.687 214.36 144.527 215.36 144.527 218.04C144.527 220.6 142.607 221.92 139.727 221.92C136.847 221.92 134.607 220.16 133.447 217.6L129.007 219.24C130.527 223.68 134.407 226.48 139.567 226.48ZM170.515 226H176.075L167.235 211.52L175.515 198H169.955L164.475 207L158.995 198H153.435L161.675 211.52L152.835 226H158.395L164.475 216.08L170.515 226Z" fill="url(#paint2_linear)"/>
<path d="M128.197 58C110.137 61.1018 92.0654 65.2161 74.0053 68.2607C74.0053 94.7536 73.9933 121.257 74.0053 147.762C91.9719 150.795 109.948 154.842 127.878 158H133.26V58H128.197ZM101.021 89.4893C104.585 89.4161 108.004 89.9107 110.782 92.333C116.102 98.5589 114.696 110.012 106.807 113.738C104.004 115.118 100.794 114.929 97.7441 114.834C97.732 119.489 97.72 124.143 97.732 128.797C95.2876 128.595 92.8321 128.393 90.3876 128.203C90.2765 115.488 90.2506 103.35 90.3988 90.6357C93.8756 90.2179 97.458 89.5616 101.022 89.4893H101.021ZM100.611 96.3875C99.6385 96.3643 98.6441 96.4491 97.7311 96.4893C97.6941 100.489 97.6718 104.476 97.9311 108.464C100.388 108.179 103.573 108.418 104.98 105.964C106.153 103.561 106.226 100.487 104.819 98.1545C103.793 96.7777 102.231 96.4295 100.611 96.3875V96.3875ZM136.966 72.2857V84.1562C138.702 83.7964 140.587 83.1205 142.52 83.0089V99.0714H159.074C158.487 103.945 156.233 108.954 151.778 111.5C147.408 114.333 141.854 114.37 136.965 112.905C136.977 115.238 136.953 119.953 136.965 122.286H166.593V125.857H136.965V133H166.593V136.571H136.965V147.286H174V72.2857H136.965H136.966ZM146.222 80.8446C154.097 81.6304 160.608 87.925 161.466 95.5H146.222V80.8446Z" fill="url(#paint3_linear)"/>
<path opacity="0.25" d="M155.608 17V61.2306C155.608 70.141 162.867 77.1605 171.777 77.1605L216.009 77.1493V75.1493L155.608 17Z" fill="#282828"/>
<path d="M155.608 15V59.2306C155.608 68.141 162.867 75.1605 171.777 75.1605L216.009 75.1493L155.608 15Z" fill="url(#paint4_linear)"/>
<defs>
<filter id="filter0_f" x="23.8778" y="0.441412" width="207.255" height="255.418" filterUnits="userSpaceOnUse" color-interpolation-filters="sRGB">
<feFlood flood-opacity="0" result="BackgroundImageFix"/>
<feBlend mode="normal" in="SourceGraphic" in2="BackgroundImageFix" result="shape"/>
<feGaussianBlur stdDeviation="7.5611" result="effect1_foregroundBlur"/>
</filter>
<linearGradient id="paint0_linear" x1="127.506" y1="240.174" x2="127.506" y2="186.5" gradientUnits="userSpaceOnUse">
<stop offset="1e-07" stop-color="#fb4934"/>
<stop offset="1" stop-color="#fe8019"/>
</linearGradient>
<linearGradient id="paint1_linear" x1="127.506" y1="240.176" x2="127.506" y2="14.9981" gradientUnits="userSpaceOnUse">
<stop offset="1e-07" stop-color="#fb4934"/>
<stop offset="1" stop-color="#fe8019"/>
</linearGradient>
<linearGradient id="paint2_linear" x1="127.5" y1="240" x2="127.5" y2="187" gradientUnits="userSpaceOnUse">
<stop offset="1e-07" stop-color="#fb4934"/>
<stop offset="1" stop-color="#fe8019"/>
</linearGradient>
<linearGradient id="paint3_linear" x1="124" y1="158.001" x2="124" y2="57.9992" gradientUnits="userSpaceOnUse">
<stop offset="1e-07" stop-color="#fb4934"/>
<stop offset="1" stop-color="#fe8019"/>
</linearGradient>
<linearGradient id="paint4_linear" x1="185.808" y1="75.161" x2="185.808" y2="14.9995" gradientUnits="userSpaceOnUse">
<stop offset="1e-07" stop-color="#fb4934"/>
<stop offset="1" stop-color="#fe8019"/>
</linearGradient>
</defs>
</svg>

<svg width="256" height="256" fill="none" version="1.1" viewBox="0 0 256 256" xmlns="http://www.w3.org/2000/svg">
  <path d="m55.08 15h100.5l60.4 60.15 2e-3 148.9c0 8.911-7.262 16.13-16.17 16.13h-144.8c-8.91 0-16.08-7.174-16.08-16.08v-193c0-8.91 7.173-16.08 16.08-16.08h1e-4z" fill="#ebdbb2"/>
  <path d="m199.8 240.2c8.911 0 16.17-7.218 16.17-16.13l-1e-3 -37.55h-177v37.59c0 8.91 7.173 16.08 16.08 16.08h144.8z" fill="url(#paint0_linear)" opacity=".2"/>
  <path d="m155.6 20.32h-100.5c-5.973 0-10.76 4.792-10.76 10.76v193c0 5.973 4.792 10.76 10.76 10.76h144.8c5.992 0 10.85-4.856 10.85-10.81v-148.9l-55.08-54.83zm0-5.319h-100.5c-8.91 0-16.08 7.173-16.08 16.08v193c0 8.91 7.173 16.08 16.08 16.08h144.8c8.911 0 16.17-7.218 16.17-16.13l-2e-3 -148.9-60.4-60.15z" clip-rule="evenodd" fill="url(#paint1_linear)" fill-rule="evenodd"/>
  <path d="m80.53 226h4.8v-10.6h6.84c6.72 0 9.4-4.72 9.4-8.72 0-4.28-2.44-8.68-9.4-8.68h-11.64v28zm11.88-15.16h-7.08v-8.28h7.08c3.28 0 4.2 2.36 4.2 4.12 0 1.96-1.12 4.16-4.2 4.16zm13.55 15.16h4.8v-10.6h6.84c6.72 0 9.4-4.72 9.4-8.72 0-4.28-2.44-8.68-9.4-8.68h-11.64v28zm11.88-15.16h-7.08v-8.28h7.08c3.28 0 4.2 2.36 4.2 4.12 0 1.96-1.12 4.16-4.2 4.16zm21.73 15.64c5.52 0 9.84-3.04 9.84-8.44 0-5.92-5.04-7.68-9.12-9.12-2.92-0.96-5.36-1.8-5.36-3.84 0-1.92 1.48-3 4-3 2.64 0 4.24 1.24 4.96 2.88l4.32-1.44c-1-3.44-4.08-6-8.96-6-5.88 0-9.2 3.44-9.2 7.52 0 5.32 4.48 6.88 8.48 8.24 3.16 1.08 6 2.08 6 4.76 0 2.56-1.92 3.88-4.8 3.88s-5.12-1.76-6.28-4.32l-4.44 1.64c1.52 4.44 5.4 7.24 10.56 7.24zm30.95-0.48h5.56l-8.84-14.48 8.28-13.52h-5.56l-5.48 9-5.48-9h-5.56l8.24 13.52-8.84 14.48h5.56l6.08-9.92 6.04 9.92z" fill="url(#paint2_linear)"/>
  <path d="m128.2 58c-18.06 3.102-36.13 7.216-54.19 10.26 0 26.49-0.012 53 0 79.5 17.97 3.033 35.94 7.08 53.87 10.24h5.382v-100h-5.063zm-27.18 31.49c3.564-0.0732 6.983 0.4214 9.761 2.844 5.32 6.226 3.914 17.68-3.975 21.4-2.803 1.38-6.013 1.191-9.063 1.096-0.0121 4.655-0.0241 9.309-0.0121 13.96-2.444-0.202-4.9-0.404-7.344-0.594-0.1111-12.72-0.137-24.85 0.0112-37.57 3.477-0.4178 7.059-1.074 10.62-1.146h-1e-3zm-0.41 6.898c-0.9725-0.0232-1.967 0.0616-2.88 0.1018-0.037 4-0.0593 7.987 0.2 11.97 2.457-0.285 5.642-0.046 7.049-2.5 1.173-2.403 1.246-5.477-0.161-7.81-1.026-1.377-2.588-1.725-4.208-1.767zm36.36-24.1v11.87c1.736-0.3598 3.621-1.036 5.554-1.147v16.06h16.55c-0.587 4.874-2.841 9.883-7.296 12.43-4.37 2.833-9.924 2.87-14.81 1.405 0.012 2.333-0.012 7.048 0 9.381h29.63v3.571h-29.63v7.143h29.63v3.571h-29.63v10.72h37.04v-75h-37.04 1e-3zm9.256 8.559c7.875 0.7858 14.39 7.08 15.24 14.66h-15.24v-14.66z" fill="url(#paint3_linear)"/>
  <path d="m155.6 17v44.23c0 8.91 7.259 15.93 16.17 15.93l44.23-0.0112v-2l-60.4-58.15z" fill="#282828" opacity=".25"/>
  <path d="m155.6 15v44.23c0 8.91 7.259 15.93 16.17 15.93l44.23-0.0112-60.4-60.15z" fill="url(#paint4_linear)"/>
  <defs>
    <linearGradient id="paint0_linear" x1="127.5" x2="127.5" y1="240.2" y2="186.5" gradientUnits="userSpaceOnUse">
      <stop stop-color="#fb4934" offset="1e-7"/>
      <stop stop-color="#fe8019" offset="1"/>
    </linearGradient>
    <linearGradient id="paint1_linear" x1="127.5" x2="127.5" y1="240.2" y2="15" gradientUnits="userSpaceOnUse">
      <stop stop-color="#fb4934" offset="1e-7"/>
      <stop stop-color="#fe8019" offset="1"/>
    </linearGradient>
    <linearGradient id="paint2_linear" x1="127.5" x2="127.5" y1="240" y2="187" gradientUnits="userSpaceOnUse">
      <stop stop-color="#fb4934" offset="1e-7"/>
      <stop stop-color="#fe8019" offset="1"/>
    </linearGradient>
    <linearGradient id="paint3_linear" x1="124" x2="124" y1="158" y2="58" gradientUnits="userSpaceOnUse">
      <stop stop-color="#fb4934" offset="1e-7"/>
      <stop stop-color="#fe8019" offset="1"/>
    </linearGradient>
    <linearGradient id="paint4_linear" x1="185.8" x2="185.8" y1="75.16" y2="15" gradientUnits="userSpaceOnUse">
      <stop stop-color="#fb4934" offset="1e-7"/>
      <stop stop-color="#fe8019" offset="1"/>
    </linearGradient>
  </defs>
</svg>
